common/src/nonfree/resources/org/geogebra/common/icons/svg/web/toolIcons/mode_mindmap.svg

<?xml version="1.0" encoding="UTF-8"?>
<svg width="24px" height="24px" viewBox="0 0 24 24" version="1.1" xmlns="http://www.w3.org/2000/svg" xmlns:xlink="http://www.w3.org/1999/xlink">
    <title>ggb Icon / Mindmap</title>
    <g id="ggb-Icon-/-Mindmap" stroke="none" stroke-width="1" fill="none" fill-rule="evenodd">
        <rect id="Rectangle" x="0" y="0" width="24" height="24"></rect>
        <path d="M20.5555556,18.5 C20.8928889,18.5 21.1666667,18.7737778 21.1666667,19.1111111 C21.1666667,19.4484444 20.8928889,19.7222222 20.5555556,19.7222222 C20.2182222,19.7222222 19.9444444,19.4484444 19.9444444,19.1111111 C19.9444444,18.7737778 20.2182222,18.5 20.5555556,18.5 L20.5555556,18.5 Z M8.94444444,13.3251111 C8.94444444,13.4827778 8.81611111,13.6111111 8.65844444,13.6111111 L3.11933333,13.6111111 C2.96166667,13.6111111 2.83333333,13.4827778 2.83333333,13.3251111 L2.83333333,10.2304444 C2.83333333,10.0727778 2.96166667,9.94444444 3.11933333,9.94444444 L8.65844444,9.94444444 C8.81611111,9.94444444 8.94444444,10.0727778 8.94444444,10.2304444 L8.94444444,13.3251111 Z M20.5555556,3.83333333 C20.8928889,3.83333333 21.1666667,4.10711111 21.1666667,4.44444444 C21.1666667,4.78177778 20.8928889,5.05555556 20.5555556,5.05555556 C20.2182222,5.05555556 19.9444444,4.78177778 19.9444444,4.44444444 C19.9444444,4.10711111 20.2182222,3.83333333 20.5555556,3.83333333 L20.5555556,3.83333333 Z M20.5555556,11.1666667 C20.8928889,11.1666667 21.1666667,11.4404444 21.1666667,11.7777778 C21.1666667,12.1151111 20.8928889,12.3888889 20.5555556,12.3888889 C20.2182222,12.3888889 19.9444444,12.1151111 19.9444444,11.7777778 C19.9444444,11.4404444 20.2182222,11.1666667 20.5555556,11.1666667 L20.5555556,11.1666667 Z M18.292,12.6944444 C18.655,13.5891111 19.5301111,14.2222222 20.5555556,14.2222222 C21.9048889,14.2222222 23,13.1271111 23,11.7777778 C23,10.4284444 21.9048889,9.33333333 20.5555556,9.33333333 C19.5301111,9.33333333 18.655,9.96644444 18.292,10.8611111 L15.3611111,10.8611111 L15.3611111,5.64222222 C15.3611111,5.50655556 15.3745556,5.41733333 15.3867778,5.36111111 L18.292,5.36111111 C18.655,6.25577778 19.5301111,6.88888889 20.5555556,6.88888889 C21.9048889,6.88888889 23,5.79377778 23,4.44444444 C23,3.09511111 21.9048889,2 20.5555556,2 C19.5301111,2 18.655,2.63311111 18.292,3.529 L15.3488889,3.53144444 C15.0274444,3.50333333 14.5458889,3.59866667 14.1572222,3.95311111 C13.7392222,4.33566667 13.5277778,4.90277778 13.5277778,5.64222222 L13.5277778,10.8611111 L10.7777778,10.8611111 L10.7777778,10.2304444 C10.7777778,9.05955556 9.82933333,8.11111111 8.65844444,8.11111111 L3.11933333,8.11111111 C1.94844444,8.11111111 1,9.05955556 1,10.2304444 L1,13.3251111 C1,14.496 1.94844444,15.4444444 3.11933333,15.4444444 L8.65844444,15.4444444 C9.82933333,15.4444444 10.7777778,14.496 10.7777778,13.3251111 L10.7777778,12.6944444 L13.5277778,12.6944444 L13.5277778,17.8595556 C13.5277778,18.6295556 13.7441111,19.2174444 14.1718889,19.6073333 C14.519,19.9238889 14.9394444,20.0314444 15.1887778,20.0314444 C15.2168889,20.0314444 15.2425556,20.029 15.2657778,20.0277778 L18.292,20.0277778 C18.655,20.9224444 19.5301111,21.5555556 20.5555556,21.5555556 C21.9048889,21.5555556 23,20.4604444 23,19.1111111 C23,17.7617778 21.9048889,16.6666667 20.5555556,16.6666667 C19.5301111,16.6666667 18.655,17.2997778 18.292,18.1944444 L15.3953333,18.1944444 C15.3794444,18.1321111 15.3611111,18.0257778 15.3611111,17.8595556 L15.3611111,12.6944444 L18.292,12.6944444 Z" id="Mindmap" fill="#000000"></path>
    </g>
</svg>

<?xml version="1.0" encoding="utf-8"?>
<!-- Generator: Adobe Illustrator 25.1.0, SVG Export Plug-In . SVG Version: 6.00 Build 0)  -->
<svg version="1.1" id="Layer_1" xmlns="http://www.w3.org/2000/svg" xmlns:xlink="http://www.w3.org/1999/xlink" x="0px" y="0px"
	 viewBox="0 0 24 24" style="enable-background:new 0 0 24 24;" xml:space="preserve">
<style type="text/css">
	.st0{filter:url(#Adobe_OpacityMaskFilter);}
	.st1{fill-rule:evenodd;clip-rule:evenodd;fill:#FFFFFF;}
	.st2{mask:url(#mask-2_1_);}
	.st3{fill-rule:evenodd;clip-rule:evenodd;}
</style>
<g id="ggb-Icon-_x2F_-mindmap">
	<g id="Fill-1">
	</g>
	<defs>
		<filter id="Adobe_OpacityMaskFilter" filterUnits="userSpaceOnUse" x="0" y="0" width="24" height="24">
			<feColorMatrix  type="matrix" values="1 0 0 0 0  0 1 0 0 0  0 0 1 0 0  0 0 0 1 0"/>
		</filter>
	</defs>
	<mask maskUnits="userSpaceOnUse" x="0" y="0" width="24" height="24" id="mask-2_1_">
		<g class="st0">
			<path id="path-1_1_" class="st1" d="M20.6,18.5c0.3,0,0.6,0.3,0.6,0.6s-0.3,0.6-0.6,0.6s-0.6-0.3-0.6-0.6S20.2,18.5,20.6,18.5
				L20.6,18.5z M8.9,13.3c0,0.2-0.1,0.3-0.3,0.3H3.1c-0.2,0-0.3-0.1-0.3-0.3v-3.1c0-0.2,0.1-0.3,0.3-0.3h5.5c0.2,0,0.3,0.1,0.3,0.3
				V13.3z M20.6,3.8c0.3,0,0.6,0.3,0.6,0.6c0,0.3-0.3,0.6-0.6,0.6s-0.6-0.3-0.6-0.6C19.9,4.1,20.2,3.8,20.6,3.8L20.6,3.8z
				 M20.6,11.2c0.3,0,0.6,0.3,0.6,0.6s-0.3,0.6-0.6,0.6s-0.6-0.3-0.6-0.6S20.2,11.2,20.6,11.2L20.6,11.2z M18.3,12.7
				c0.4,0.9,1.2,1.5,2.3,1.5c1.3,0,2.4-1.1,2.4-2.4s-1.1-2.4-2.4-2.4c-1,0-1.9,0.6-2.3,1.5h-2.9V5.6c0-0.1,0-0.2,0-0.3h2.9
				c0.4,0.9,1.2,1.5,2.3,1.5c1.3,0,2.4-1.1,2.4-2.4S21.9,2,20.6,2c-1,0-1.9,0.6-2.3,1.5l-2.9,0c-0.3,0-0.8,0.1-1.2,0.4
				c-0.4,0.4-0.6,0.9-0.6,1.7v5.2h-2.8v-0.6c0-1.2-0.9-2.1-2.1-2.1H3.1C1.9,8.1,1,9.1,1,10.2v3.1c0,1.2,0.9,2.1,2.1,2.1h5.5
				c1.2,0,2.1-0.9,2.1-2.1v-0.6h2.8v5.2c0,0.8,0.2,1.4,0.6,1.7c0.3,0.3,0.8,0.4,1,0.4c0,0,0.1,0,0.1,0h3c0.4,0.9,1.2,1.5,2.3,1.5
				c1.3,0,2.4-1.1,2.4-2.4s-1.1-2.4-2.4-2.4c-1,0-1.9,0.6-2.3,1.5h-2.9c0-0.1,0-0.2,0-0.3v-5.2H18.3z"/>
		</g>
	</mask>
	<g id="Group" class="st2">
		<g id="_x2731_-_x2F_-Color-_x2F_-Icons-_x2F_-Black-_x2F_-Inactive">
			<rect id="Rectangle" class="st3" width="24" height="24"/>
		</g>
	</g>
</g>
</svg>
